packages/vibrant-icons/assets/icons/School/Regular.svg

<svg width="24" height="24" viewBox="0 0 24 24" fill="none" xmlns="http://www.w3.org/2000/svg">
<path fill-rule="evenodd" clip-rule="evenodd" d="M5.25 9.15025V5.43515C5.25 5.25854 5.34316 5.09504 5.4951 5.005L11.745 1.3013C11.9022 1.20816 12.0976 1.20816 12.2548 1.3013L18.5049 5.005C18.6568 5.09504 18.75 5.25854 18.75 5.43515V9.15025H22.3499C22.626 9.15025 22.8499 9.3741 22.8499 9.65025V21.3502C22.8499 21.6264 22.626 21.8502 22.3499 21.8502H1.6499C1.37376 21.8502 1.1499 21.6264 1.1499 21.3502V9.65025C1.1499 9.3741 1.37376 9.15025 1.6499 9.15025H5.25ZM7.45 6.40381L11.9999 3.70752L16.55 6.40383V11.3502H20.6499V19.6502H3.3499V11.3502H7.45V6.40381Z" fill="#0C0C0C" />
<path d="M12 11.7499C13.3117 11.7499 14.375 10.6865 14.375 9.37486C14.375 8.06318 13.3117 6.99986 12 6.99986C10.6883 6.99986 9.625 8.06318 9.625 9.37486C9.625 10.6865 10.6883 11.7499 12 11.7499Z" fill="#0C0C0C" />
</svg>

<svg xmlns="http://www.w3.org/2000/svg" width="24" height="24" fill="none"><path fill="#0C0C0C" fill-rule="evenodd" d="M5.25 9.15V5.435a.5.5 0 0 1 .245-.43l6.25-3.704a.5.5 0 0 1 .51 0l6.25 3.704a.5.5 0 0 1 .245.43V9.15h3.6a.5.5 0 0 1 .5.5v11.7a.5.5 0 0 1-.5.5H1.65a.5.5 0 0 1-.5-.5V9.65a.5.5 0 0 1 .5-.5zm2.2-2.746L12 3.708l4.55 2.696v4.946h4.1v8.3H3.35v-8.3h4.1z" clip-rule="evenodd"/><path fill="#0C0C0C" d="M12 11.75A2.375 2.375 0 1 0 12 7a2.375 2.375 0 0 0 0 4.75"/></svg>
